;FLAVOR:Marlin
;TIME:12064
;Filament used: 9.07576m
;Layer height: 0.2
;MINX:105.095
;MINY:112.135
;MINZ:0.3
;MAXX:193.596
;MAXY:178.469
;MAXZ:29.975
;TARGET_MACHINE.NAME:Anycubic i3 Mega X
;Generated with Cura_SteamEngine 5.8.1
M82 ;absolute extrusion mode
;Profil Homepage: https://github.com/NilsRo/Cura_Anycubic_MegaS_Profile

;Slicer Information - (Support for OctoPrint Slicer Estimator)
;Slicer info:material_guid;0ff92885-617b-4144-a03c-9989872454bc
;Slicer info:material_id;generic_pla_175
;Slicer info:material_brand;Generic
;Slicer info:material_name;PLA
;Slicer info:filament_cost;[0.0]
;Slicer info:material_bed_temperature;60
;Slicer info:material_bed_temperature_layer_0;60
;Slicer info:material_print_temperature;200
;Slicer info:material_print_temperature_layer_0;205
;Slicer info:material_flow;100
;Slicer info:layer_height;0.2
;Slicer info:machine_nozzle_size;0.4
;Slicer info:wall_thickness;1.2000000000000002
;Slicer info:speed_print;50.0
;Slicer info:speed_topbottom;25.0
;Slicer info:travel_speed;100.0
;Slicer info:support;0
;Slicer info:retraction_speed;30
;Slicer info:retraction_amount;6
;Slicer info:layer_height;0.2
;Slicer info:infill_pattern;grid
;Slicer info:infill_sparse_density;25
;Slicer info:cool_fan_enabled;True
;Slicer info:cool_fan_speed;100
;Slicer info:sliced_at;Fri 09-05-2025 13:39:27
G21                                        ; metric values 
G90                                        ; absolute positioning 
M82                                        ; set extruder to absolute mode 
M900 K0                                    ; disable lin. adv. if not set in GCODE
M107                                       ; start with the fan off 
M140 S60   ; Start heating the bed 
G4 S60                                     ; wait 1 minute 
M104 S205 ; start heating the hot end 
M190 S60   ; wait for bed 
M109 S205 ; wait for hotend 
M300 S1000 P500                            ; BEEP heating done 
G28 X0 Y10 Z0                              ; move X/Y to min endstops 
M420 S1                                    ; Enable leveling 
M420 Z2.0                                  ; Set leveling fading height to 2 mm 
G0 Z0.15                                   ; lift nozzle a bit 
G92 E0                                     ; zero the extruded length 
G1 X50 E20 F500                            ; Extrude 20mm of filament in a 5cm line. 
G92 E0                                     ; zero the extruded length again 
G1 E-2 F500                                ; Retract a little 
G1 X50 F500                                ; wipe away from the filament line
G1 X100 F9000                              ; Quickly wipe away from the filament line
G92 E0
G92 E0
G1 F1800 E-6
;LAYER_COUNT:149
;LAYER:0
M106 S76.5
M205 X10 Y10
G1 F480 Z0.375
G0 F6000 X107.591 Y114.21 Z0.375
M205 X8 Y8
;TYPE:SKIRT
G1 F480 Z0.3
G1 F1800 E0
G1 F1200 X108.085 Y113.822 E0.03134
G1 X108.794 Y113.335 E0.07425
G1 X109.474 Y112.954 E0.11314
G1 X110.158 Y112.674 E0.15001
G1 X110.658 Y112.533 E0.17593
G1 X111.554 Y112.335 E0.22171
G1 X112.585 Y112.231 E0.27341
G1 X113.332 Y112.221 E0.31068
G1 X143.253 Y112.222 E1.80344
G1 X144.953 Y112.246 E1.88827
G1 X146.004 Y112.276 E1.94072
G1 X148.661 Y112.277 E2.07328
G1 X151.362 Y112.202 E2.20809
G1 X152.422 Y112.15 E2.26103
G1 X153.026 Y112.135 E2.29118
G1 X187.295 Y112.135 E4.00086
G1 X188.091 Y112.147 E4.04058
G1 X188.734 Y112.196 E4.07275
G1 X189.464 Y112.344 E4.10991
G1 X190.12 Y112.568 E4.1445
G1 X190.701 Y112.847 E4.17665
G1 X191.327 Y113.25 E4.2138
G1 X191.857 Y113.698 E4.24842
G1 X192.297 Y114.17 E4.28061
G1 X192.706 Y114.73 E4.31521
G1 X193.064 Y115.382 E4.35232
G1 X193.302 Y115.981 E4.38447
G1 X193.49 Y116.709 E4.42199
G1 X193.594 Y117.653 E4.46937
G1 X193.596 Y172.198 E7.19063
G1 X193.586 Y172.955 E7.2284
G1 X193.538 Y173.598 E7.26057
G1 X193.404 Y174.279 E7.29519
G1 X193.168 Y174.983 E7.33224
G1 X192.866 Y175.609 E7.36691
G1 X192.518 Y176.151 E7.39905
G1 X192.075 Y176.687 E7.43374
G1 X191.57 Y177.163 E7.46836
G1 X190.969 Y177.6 E7.50543
G1 X190.404 Y177.911 E7.53761
G1 X189.715 Y178.187 E7.57464
G1 X189.033 Y178.362 E7.60977
G1 X188.078 Y178.468 E7.65771
G1 X153.334 Y178.469 E9.39109
G1 X152.458 Y178.455 E9.4348
G1 X151.887 Y178.431 E9.46331
G1 X149.157 Y178.353 E9.59957
G1 X145.878 Y178.363 E9.76316
G1 X143.039 Y178.42 E9.90483
G1 X113.207 Y178.421 E11.39315
G1 X112.359 Y178.408 E11.43546
G1 X111.717 Y178.359 E11.46759
G1 X110.942 Y178.199 E11.50707
G1 X110.415 Y178.05 E11.53439
G1 X109.73 Y177.805 E11.57068
G1 X108.805 Y177.315 E11.62291
G1 X108.081 Y176.818 E11.66672
G1 X107.575 Y176.419 E11.69887
G1 X107.053 Y175.892 E11.73587
G1 X106.704 Y175.444 E11.76421
G1 X106.205 Y174.717 E11.8082
G1 X105.802 Y173.992 E11.84958
G1 X105.559 Y173.394 E11.88179
G1 X105.395 Y172.815 E11.91181
G1 X105.205 Y171.924 E11.95726
G1 X105.106 Y170.903 E12.00844
G1 X105.095 Y170.159 E12.04556
G1 X105.097 Y120.16 E14.54002
G1 X105.107 Y119.489 E14.5735
G1 X105.155 Y118.846 E14.60567
G1 X105.32 Y118.052 E14.64613
G1 X105.468 Y117.534 E14.673
G1 X105.691 Y116.903 E14.70639
G1 X106.148 Y116.037 E14.75524
G1 X106.641 Y115.281 E14.80027
G1 X107.132 Y114.663 E14.83965
G1 X107.591 Y114.21 E14.87183
M205 X10 Y10
G0 F6000 X107.872 Y114.495
M205 X8 Y8
G1 F1200 X108.312 Y114.151 E14.89969
G1 X108.99 Y113.684 E14.94076
G1 X109.67 Y113.303 E14.97965
G1 X110.267 Y113.059 E15.01183
G1 X110.767 Y112.918 E15.03774
G1 X111.595 Y112.733 E15.08007
G1 X112.59 Y112.631 E15.12997
G1 X113.332 Y112.621 E15.16699
G1 X143.247 Y112.622 E16.65946
G1 X144.942 Y112.646 E16.74403
G1 X145.993 Y112.676 E16.79649
G1 X148.672 Y112.677 E16.93014
G1 X151.382 Y112.602 E17.0654
G1 X152.432 Y112.55 E17.11785
G1 X153.036 Y112.535 E17.14799
G1 X187.289 Y112.535 E18.85688
G1 X188.061 Y112.546 E18.8954
G1 X188.704 Y112.595 E18.92757
G1 X189.336 Y112.723 E18.95974
G1 X189.947 Y112.929 E18.99191
G1 X190.528 Y113.208 E19.02407
G1 X191.07 Y113.557 E19.05623
G1 X191.564 Y113.971 E19.08838
G1 X192.004 Y114.443 E19.12058
G1 X192.382 Y114.965 E19.15273
G1 X192.692 Y115.53 E19.18488
G1 X192.93 Y116.129 E19.21704
G1 X193.092 Y116.753 E19.2492
G1 X193.196 Y117.697 E19.29658
G1 X193.196 Y172.193 E22.0154
G1 X193.187 Y172.925 E22.05192
G1 X193.139 Y173.568 E22.08409
G1 X193.012 Y174.2 E22.11625
G1 X192.807 Y174.811 E22.14841
G1 X192.529 Y175.393 E22.18058
G1 X192.181 Y175.935 E22.21272
G1 X191.768 Y176.431 E22.24492
G1 X191.297 Y176.871 E22.27708
G1 X190.776 Y177.25 E22.30922
G1 X190.211 Y177.561 E22.34139
G1 X189.613 Y177.8 E22.37352
G1 X188.989 Y177.964 E22.40571
G1 X188.034 Y178.07 E22.45365
G1 X153.34 Y178.069 E24.18454
G1 X152.475 Y178.055 E24.2277
G1 X151.904 Y178.031 E24.25621
G1 X149.167 Y177.953 E24.39282
G1 X145.87 Y177.963 E24.55731
G1 X143.039 Y178.02 E24.69858
G1 X113.213 Y178.021 E26.1866
G1 X112.389 Y178.009 E26.22771
G1 X111.747 Y177.96 E26.25984
G1 X111.051 Y177.814 E26.29532
G1 X110.524 Y177.665 E26.32264
G1 X109.916 Y177.451 E26.3548
G1 X109.031 Y176.985 E26.4047
G1 X108.329 Y176.504 E26.44715
G1 X107.823 Y176.105 E26.4793
G1 X107.369 Y175.646 E26.51151
G1 X107.02 Y175.198 E26.53984
G1 X106.554 Y174.521 E26.58085
G1 X106.173 Y173.841 E26.61973
G1 X105.93 Y173.243 E26.65194
G1 X105.786 Y172.73 E26.67852
G1 X105.603 Y171.885 E26.72165
G1 X105.506 Y170.897 E26.77118
G1 X105.495 Y170.159 E26.80801
G1 X105.497 Y120.166 E29.30217
G1 X105.506 Y119.519 E29.33445
G1 X105.554 Y118.876 E29.36662
G1 X105.705 Y118.162 E29.40303
G1 X105.853 Y117.644 E29.4299
G1 X106.068 Y117.037 E29.46203
G1 X106.483 Y116.255 E29.5062
G1 X106.955 Y115.529 E29.5494
G1 X107.413 Y114.948 E29.58631
G1 X107.872 Y114.495 E29.61848
M205 X10 Y10
G1 F1800 E23.61848
G1 F480 Z0.375
;MESH:Box3dprint.stl
G0 F6000 X111.692 Y170.721 Z0.375
M205 X8 Y8
;TYPE:WALL-INNER
G1 F480 Z0.3
G1 F1800 E29.61848
G1 F1200 X111.786 Y171.193 E29.64249
G1 X112.001 Y171.515 E29.66181
G1 X112.582 Y171.82 E29.69455
G1 X143.811 Y171.82 E31.25257
G1 X144.388 Y171.514 E31.28515
G1 X144.692 Y170.943 E31.31743
G1 X144.692 Y119.701 E33.8739
G1 X144.386 Y119.125 E33.90644
G1 X143.804 Y118.82 E33.93922
G1 X112.784 Y118.82 E35.48682
G1 X112.319 Y118.914 E35.51048
G1 X112 Y119.126 E35.52959
G1 X111.696 Y119.7 E35.562
G1 X111.692 Y170.721 E38.10745
M205 X10 Y10
G0 F6000 X111.292 Y170.761
M205 X8 Y8
G1 F1200 X111.41 Y171.349 E38.13737
G1 X111.713 Y171.803 E38.1646
G1 X112.18 Y172.115 E38.19262
G1 X112.522 Y172.22 E38.21047
G1 X143.87 Y172.22 E39.77443
G1 X144.2 Y172.119 E39.79164
G1 X144.676 Y171.802 E39.82017
G1 X144.991 Y171.331 E39.84844
G1 X145.092 Y171.002 E39.86561
G1 X145.092 Y119.642 E42.42797
G1 X144.991 Y119.312 E42.44519
G1 X144.675 Y118.837 E42.47366
G1 X144.208 Y118.525 E42.50168
G1 X143.863 Y118.42 E42.51967
G1 X112.744 Y118.42 E44.0722
G1 X112.163 Y118.537 E44.10177
G1 X111.712 Y118.838 E44.12882
G1 X111.397 Y119.308 E44.15705
G1 X111.296 Y119.641 E44.17441
G1 X111.292 Y170.761 E46.7248
M205 X10 Y10
G0 F6000 X110.892 Y170.8
M205 X8 Y8
;TYPE:WALL-OUTER
G1 F1200 X111.033 Y171.505 E46.76066
G1 X111.425 Y172.091 E46.79584
G1 X112.007 Y172.481 E46.83079
G1 X112.462 Y172.62 E46.85453
G1 X143.93 Y172.62 E48.42447
G1 X144.373 Y172.485 E48.44758
G1 X144.964 Y172.091 E48.48301
G1 X145.357 Y171.505 E48.51821
G1 X145.492 Y171.062 E48.54132
G1 X145.492 Y119.582 E51.10967
G1 X145.357 Y119.139 E51.13277
G1 X144.963 Y118.549 E51.16817
G1 X144.381 Y118.159 E51.20312
G1 X143.922 Y118.02 E51.22705
G1 X112.704 Y118.02 E52.78452
G1 X112.007 Y118.161 E52.82
G1 X111.424 Y118.549 E52.85493
G1 X111.031 Y119.135 E52.89014
G1 X110.896 Y119.582 E52.91343
G1 X110.892 Y170.8 E55.46871
M205 X10 Y10
G0 F6000 X110.931 Y170.996
G0 X112.072 Y170.685
M205 X8 Y8
;TYPE:SKIN
G1 F1200 X112.076 Y119.774 E58.00867
G1 X112.281 Y119.391 E58.03034
G1 X112.466 Y119.269 E58.0414
G1 X112.82 Y119.2 E58.05939
G1 X143.726 Y119.2 E59.6013
G1 X144.109 Y119.401 E59.62288
G1 X144.312 Y119.775 E59.64411
G1 X144.312 Y170.864 E62.19295
G1 X144.108 Y171.236 E62.21411
G1 X143.733 Y171.44 E62.23541
G1 X112.658 Y171.44 E63.78575
G1 X112.266 Y171.23 E63.80794
G1 X112.141 Y171.045 E63.81908
G1 X112.072 Y170.685 E63.83736
M205 X10 Y10
G0 F6000 X112.974 Y171.239
M205 X8 Y8
G1 F1200 X112.272 Y170.537 E63.88689
M205 X10 Y10
G0 F6000 X112.272 Y169.971
M205 X8 Y8
G1 F1200 X113.539 Y171.239 E63.97632
M205 X10 Y10
G0 F6000 X114.105 Y171.239
M205 X8 Y8
G1 F1200 X112.272 Y169.406 E64.10565
M205 X10 Y10
G0 F6000 X112.272 Y168.84
M205 X8 Y8
G1 F1200 X114.671 Y171.239 E64.27491
M205 X10 Y10
G0 F6000 X115.236 Y171.239
M205 X8 Y8
G1 F1200 X112.272 Y168.274 E64.48407
M205 X10 Y10
G0 F6000 X112.272 Y167.709
M205 X8 Y8
G1 F1200 X115.802 Y171.239 E64.73313
M205 X10 Y10
G0 F6000 X116.368 Y171.239
M205 X8 Y8
G1 F1200 X112.272 Y167.143 E65.02213
M205 X10 Y10
G0 F6000 X112.272 Y166.577
M205 X8 Y8
G1 F1200 X116.934 Y171.239 E65.35106
M205 X10 Y10
G0 F6000 X117.499 Y171.239
M205 X8 Y8
G1 F1200 X112.272 Y166.012 E65.71985
M205 X10 Y10
G0 F6000 X112.272 Y165.446
M205 X8 Y8
G1 F1200 X118.065 Y171.239 E66.12858
M205 X10 Y10
G0 F6000 X118.631 Y171.239
M205 X8 Y8
G1 F1200 X112.272 Y164.88 E66.57724
M205 X10 Y10
G0 F6000 X112.272 Y164.315
M205 X8 Y8
G1 F1200 X119.196 Y171.239 E67.06577
M205 X10 Y10
G0 F6000 X119.762 Y171.239
M205 X8 Y8
G1 F1200 X112.272 Y163.749 E67.59423
M205 X10 Y10
G0 F6000 X112.272 Y163.183
M205 X8 Y8
G1 F1200 X120.328 Y171.239 E68.16262
M205 X10 Y10
G0 F6000 X120.893 Y171.239
M205 X8 Y8
G1 F1200 X112.272 Y162.618 E68.77088
M205 X10 Y10
G0 F6000 X112.272 Y162.053
M205 X8 Y8
G1 F1200 X121.459 Y171.239 E69.41904
M205 X10 Y10
G0 F6000 X122.025 Y171.239
M205 X8 Y8
G1 F1200 X112.272 Y161.487 E70.10713
M205 X10 Y10
G0 F6000 X112.272 Y160.921
M205 X8 Y8
G1 F1200 X122.59 Y171.239 E70.83512
M205 X10 Y10
G0 F6000 X123.156 Y171.239
M205 X8 Y8
G1 F1200 X112.272 Y160.356 E71.60301
M205 X10 Y10
G0 F6000 X112.272 Y159.79
M205 X8 Y8
G1 F1200 X123.722 Y171.239 E72.41083
M205 X10 Y10
G0 F6000 X124.287 Y171.239
M205 X8 Y8
G1 F1200 X112.272 Y159.224 E73.25856
M205 X10 Y10
G0 F6000 X112.272 Y158.658
M205 X8 Y8
G1 F1200 X124.853 Y171.239 E74.14621
M205 X10 Y10
G0 F6000 X125.419 Y171.239
M205 X8 Y8
G1 F1200 X112.272 Y158.093 E75.07377
M205 X10 Y10
G0 F6000 X112.272 Y157.527
M205 X8 Y8
G1 F1200 X125.985 Y171.239 E76.04126
M205 X10 Y10
G0 F6000 X126.55 Y171.239
M205 X8 Y8
G1 F1200 X112.272 Y156.961 E77.04865
M205 X10 Y10
G0 F6000 X112.272 Y156.396
M205 X8 Y8
G1 F1200 X127.116 Y171.239 E78.09594
M205 X10 Y10
G0 F6000 X127.682 Y171.239
M205 X8 Y8
G1 F1200 X112.272 Y155.83 E79.18316
M205 X10 Y10
G0 F6000 X112.272 Y155.264
M205 X8 Y8
G1 F1200 X128.247 Y171.239 E80.31029
M205 X10 Y10
G0 F6000 X128.813 Y171.239
M205 X8 Y8
G1 F1200 X112.272 Y154.699 E81.47731
M205 X10 Y10
G0 F6000 X112.272 Y154.133
M205 X8 Y8
G1 F1200 X129.379 Y171.239 E82.68426
M205 X10 Y10
G0 F6000 X129.944 Y171.239
M205 X8 Y8
G1 F1200 X112.273 Y153.568 E83.93105
M205 X10 Y10
G0 F6000 X112.273 Y153.002
M205 X8 Y8
G1 F1200 X130.51 Y171.239 E85.21777
M205 X10 Y10
G0 F6000 X131.076 Y171.239
M205 X8 Y8
G1 F1200 X112.273 Y152.437 E86.54438
M205 X10 Y10
G0 F6000 X112.273 Y151.871
M205 X8 Y8
G1 F1200 X131.641 Y171.239 E87.9109
M205 X10 Y10
G0 F6000 X132.207 Y171.239
M205 X8 Y8
G1 F1200 X112.273 Y151.305 E89.31735
M205 X10 Y10
G0 F6000 X112.273 Y150.74
M205 X8 Y8
G1 F1200 X132.773 Y171.239 E90.7637
M205 X10 Y10
G0 F6000 X133.338 Y171.239
M205 X8 Y8
G1 F1200 X112.273 Y150.174 E92.24995
M205 X10 Y10
G0 F6000 X112.273 Y149.608
M205 X8 Y8
G1 F1200 X133.904 Y171.239 E93.77614
M205 X10 Y10
G0 F6000 X134.47 Y171.239
M205 X8 Y8
G1 F1200 X112.273 Y149.043 E95.34222
M205 X10 Y10
G0 F6000 X112.273 Y148.477
M205 X8 Y8
G1 F1200 X135.035 Y171.239 E96.9482
M205 X10 Y10
G0 F6000 X135.601 Y171.239
M205 X8 Y8
G1 F1200 X112.273 Y147.911 E98.59412
M205 X10 Y10
G0 F6000 X112.273 Y147.345
M205 X8 Y8
G1 F1200 X136.167 Y171.239 E100.27997
M205 X10 Y10
G0 F6000 X136.733 Y171.239
M205 X8 Y8
G1 F1200 X112.273 Y146.78 E102.00572
M205 X10 Y10
G0 F6000 X112.273 Y146.214
M205 X8 Y8
G1 F1200 X137.298 Y171.239 E103.77137
M205 X10 Y10
G0 F6000 X137.864 Y171.239
M205 X8 Y8
G1 F1200 X112.273 Y145.648 E105.57695
M205 X10 Y10
G0 F6000 X112.274 Y145.083
M205 X8 Y8
G1 F1200 X138.43 Y171.239 E107.4224
M205 X10 Y10
G0 F6000 X138.995 Y171.239
M205 X8 Y8
G1 F1200 X112.274 Y144.518 E109.30771
M205 X10 Y10
G0 F6000 X112.274 Y143.952
M205 X8 Y8
G1 F1200 X139.561 Y171.239 E111.23295
M205 X10 Y10
G0 F6000 X140.127 Y171.239
M205 X8 Y8
G1 F1200 X112.274 Y143.386 E113.19813
M205 X10 Y10
G0 F6000 X112.274 Y142.821
M205 X8 Y8
G1 F1200 X140.692 Y171.239 E115.20318
M205 X10 Y10
G0 F6000 X141.258 Y171.239
M205 X8 Y8
G1 F1200 X112.274 Y142.255 E117.24815
M205 X10 Y10
G0 F6000 X112.274 Y141.689
M205 X8 Y8
G1 F1200 X141.824 Y171.239 E119.33307
M205 X10 Y10
G0 F6000 X142.389 Y171.239
M205 X8 Y8
G1 F1200 X112.274 Y141.124 E121.45784
M205 X10 Y10
G0 F6000 X112.274 Y140.558
M205 X8 Y8
G1 F1200 X142.955 Y171.239 E123.62255
M205 X10 Y10
G0 F6000 X143.521 Y171.239
M205 X8 Y8
G1 F1200 X112.274 Y139.992 E125.8272
M205 X10 Y10
G0 F6000 X112.274 Y139.427
M205 X8 Y8
G1 F1200 X143.944 Y171.097 E128.06169
M205 X10 Y10
G0 F6000 X144.113 Y170.7
M205 X8 Y8
G1 F1200 X112.274 Y138.861 E130.3081
M205 X10 Y10
G0 F6000 X112.274 Y138.295
M205 X8 Y8
G1 F1200 X144.113 Y170.134 E132.55451
M205 X10 Y10
G0 F6000 X144.113 Y169.568
M205 X8 Y8
G1 F1200 X112.274 Y137.73 E134.80089
M205 X10 Y10
G0 F6000 X112.274 Y137.164
M205 X8 Y8
G1 F1200 X144.113 Y169.003 E137.04731
M205 X10 Y10
G0 F6000 X144.113 Y168.437
M205 X8 Y8
G1 F1200 X112.274 Y136.599 E139.29368
M205 X10 Y10
G0 F6000 X112.274 Y136.033
M205 X8 Y8
G1 F1200 X144.113 Y167.871 E141.54006
M205 X10 Y10
G0 F6000 X144.113 Y167.306
M205 X8 Y8
G1 F1200 X112.274 Y135.468 E143.78644
M205 X10 Y10
G0 F6000 X112.274 Y134.902
M205 X8 Y8
G1 F1200 X144.113 Y166.74 E146.03282
M205 X10 Y10
G0 F6000 X144.113 Y166.174
M205 X8 Y8
G1 F1200 X112.274 Y134.336 E148.2792
M205 X10 Y10
G0 F6000 X112.274 Y133.77
M205 X8 Y8
G1 F1200 X144.113 Y165.609 E150.52561
M205 X10 Y10
G0 F6000 X144.113 Y165.043
M205 X8 Y8
G1 F1200 X112.274 Y133.205 E152.77199
M205 X10 Y10
G0 F6000 X112.274 Y132.639
M205 X8 Y8
